X: 22819
T: Lansdowne Lass, The
R: reel
M: 4/4
K: Gmajor
A|:~B2 ge dBGA|~B2 GB AGEG|DGGF GA B/c/d|gedB BAGA|
~B2 ge dBGA|~B2 GB AGEG|DGGF GA B/c/d|gedB G3 A:|
|:BG ~G2 dG ~G2|~g2 ge dG ~G2|~g2 fg edBd|eaag a2 ga|
b2 ~b2 agef|~g2 ge dBAB|~G2 GE Dgge|1 dBAB G3 A:|2 dBAB G3||

